X: 099
T: Miss Mack's Reel
B: 204 Favourite Country Dances
N: Published by Straight & Skillern, London ca.1775
F: http://imslp.org/wiki/204_Favourite_Country_Dances_(Various) p.50 #99
Z: 2014 John Chambers <jc:trillian.mit.edu>
M: C|
L: 1/8
K: G
% - - - - - - - - - - - - - - - - - - - - - - - - -
|:\
G2 (DE/F/) GDB,G, | GABG A/A/A A2 |\
G3 (F3/E//F//) GG,G,c | BdAB G/G/G G2 :|\
|:\
BcdB ecdB | cBAG =F/F/F A2 |
Bd-dg ecdB | cAdB G/G/G G2 |\
BcdB ecdB | cBAG =F/F/F A2 |\
Bd-dg egdB | cAdB G/G/G G2 :|
% - - - - - - - - - - - - - - - - - - - - - - - - -
%%begintext align
%% Cast off 2 Cu. cast up again cross over 2 Cu. lead up & cast
%% off set corners & turn lead out sides
%%endtext

%%sep 1 1 500
%%sep 1 1 500
